;FLAVOR:Marlin
;TIME:1567
;Filament used: 1.2063m
;Layer height: 0.13
;MINX:-39.945
;MINY:-4.947
;MINZ:0.3
;MAXX:39.949
;MAXY:4.932
;MAXZ:45.02
;TARGET_MACHINE.NAME:Unknown
;Generated with Cura_SteamEngine 5.8.1
M104 S205
M105
M109 S205
M82 ;absolute extrusion mode
G28 ; home


;Prime the extruder
G92 E0
G1 F200 E3
G92 E0
M83 ;relative extrusion mode
G1 F3600 E-1
;LAYER_COUNT:347
;LAYER:0
;note -- min layer time used
M106 S255
;MESH:bridge_unwrapped.stl
G0 F9600 X0.2 Y0.094 Z0.3
;TYPE:WALL-OUTER
G1 F3600 E1
G1 F317.6 X0.147 Y0.186 E0.01126
G1 X0.041 Y0.186 E0.01124
G1 X-0.012 Y0.094 E0.01126
G1 X0.041 Y0.002 E0.01126
G1 X0.147 Y0.002 E0.01124
G1 X0.2 Y0.094 E0.01126
G1 F3600 E-1
;MESH:NONMESH
G0 F600 X0.2 Y0.094 Z0.43
G0 F9600 X0.123 Y0.123
;TIME_ELAPSED:2.010727
;LAYER:1
;note -- min layer time used
;TYPE:WALL-INNER
;MESH:bridge_unwrapped.stl
G1 F3600 E1
G1 F376 X-.123 Y-.123 E0.0135
G1 F3600 E-1
G0 F12000 X0.546 Y0.546
;TYPE:WALL-OUTER
G1 F3600 E1
G1 F600 X0.788 Y0.002 E0.01448
G1 X-0.002 Y-.788 E0.02717
G1 X-.546 Y-.546 E0.01448
G1 X-.788 Y-0.002 E0.01448
G1 X0.002 Y0.788 E0.02717
G1 X0.546 Y0.546 E0.01448
G0 F12000 X0.788 Y0.002
G0 X0.644 Y-.142
G1 F3600 E-1
;MESH:NONMESH
G0 F600 X0.644 Y-.142 Z0.56
G0 F12000 X0.417 Y0.084
G0 X0.049 Y0.767
;TIME_ELAPSED:2.781517
;LAYER:2
;note -- min layer time used
;TYPE:WALL-INNER
;MESH:bridge_unwrapped.stl
G1 F3600 E1
G1 F600 X0.553 Y0.551 E0.01334
G1 X0.768 Y0.05 E0.01326
G1 X0.693 Y-.134 E0.00483
G1 X0.531 Y-.533 E0.01047
G1 X0.132 Y-.695 E0.01047
G1 X-0.049 Y-.768 E0.00475
G1 X-.553 Y-.551 E0.01335
G1 X-.768 Y-0.05 E0.01326
G1 X-.693 Y0.134 E0.00483
G1 X-.531 Y0.535 E0.01052
G1 X-.132 Y0.695 E0.01046
G1 X0.049 Y0.767 E0.00474
G1 F3600 E-1
G0 F12000 X0.298 Y1.143
;TYPE:WALL-OUTER
G1 F3600 E1
G1 F600 X0.873 Y0.87 E0.01548
G1 X1.147 Y0.287 E0.01567
G1 X1.199 Y0.077 E0.00526
G1 X1.213 Y0.019 E0.00145
G1 X0.854 Y-.869 E0.0233
G1 X-0.018 Y-1.213 E0.0228
G1 X-0.078 Y-1.198 E0.0015
G1 X-.299 Y-1.143 E0.00554
G1 X-.873 Y-.87 E0.01546
G1 X-1.147 Y-.287 E0.01567
G1 X-1.199 Y-0.077 E0.00526
G1 X-1.213 Y-0.019 E0.00145
G1 X-.855 Y0.868 E0.02326
G1 X0.018 Y1.213 E0.02283
G1 X0.078 Y1.198 E0.0015
G1 X0.298 Y1.143 E0.00552
G0 F12000 X0.873 Y0.87
G0 X0.942 Y0.723
G0 X0.057 Y0.287
;TYPE:SKIN
G1 F548.8 X-.188 Y0.191 E0.007
G1 X-.287 Y-0.057 E0.0071
G1 X-.214 Y-.214 E0.0046
G1 X-0.057 Y-.287 E0.0046
G1 X0.188 Y-.187 E0.00704
G1 X0.287 Y0.057 E0.007
G1 X0.214 Y0.214 E0.0046
G1 X0.057 Y0.287 E0.0046
G0 F12000 X-0.024 Y0.088
G1 F3600 E-1
;MESH:NONMESH
G0 F600 X-0.024 Y0.088 Z0.69
G0 F12000 X0.045 Y1.189
;TIME_ELAPSED:4.471883
;LAYER:3
;note -- min layer time used
;TYPE:WALL-INNER
;MESH:bridge_unwrapped.stl
G1 F3600 E1
G1 F600 X0.492 Y1.078 E0.0112
G1 X0.846 Y0.846 E0.01029
G1 X1.08 Y0.479 E0.01059
G1 X1.188 Y0.047 E0.01083
G1 X1.011 Y-.553 E0.01521
G1 X0.984 Y-.644 E0.00231
G1 X0.968 Y-.66 E0.00055
G1 X0.659 Y-.97 E0.01065
G1 X0.644 Y-.985 E0.00052
G1 X0.562 Y-1.009 E0.00208
G1 X-0.045 Y-1.189 E0.0154
G1 X-.492 Y-1.078 E0.0112
G1 X-.847 Y-.847 E0.0103
G1 X-1.08 Y-.479 E0.01059
G1 X-1.188 Y-0.047 E0.01083
G1 X-1.011 Y0.553 E0.01521
G1 X-.984 Y0.644 E0.00231
G1 X-.968 Y0.66 E0.00055
G1 X-.657 Y0.971 E0.0107
G1 X-.644 Y0.984 E0.00045
G1 X-.57 Y1.006 E0.00188
G1 X0.045 Y1.189 E0.01561
G1 F3600 E-1
G0 F12000 X0.036 Y1.629
;TYPE:WALL-OUTER
G1 F3600 E1
G1 F600 X0.638 Y1.479 E0.01509
G1 X0.871 Y1.366 E0.0063
G1 X1.149 Y1.149 E0.00858
G1 X1.365 Y0.872 E0.00854
G1 X1.483 Y0.623 E0.0067
G1 X1.627 Y0.041 E0.01458
G1 X1.539 Y-.26 E0.00763
G1 X1.362 Y-.868 E0.0154
G1 X0.868 Y-1.362 E0.01699
G1 X0.266 Y-1.54 E0.01527
G1 X-0.035 Y-1.629 E0.00763
G1 X-.638 Y-1.479 E0.01511
G1 X-.871 Y-1.366 E0.0063
G1 X-1.149 Y-1.149 E0.00858
G1 X-1.365 Y-.872 E0.00854
G1 X-1.483 Y-.623 E0.0067
G1 X-1.627 Y-0.041 E0.01458
G1 X-1.539 Y0.26 E0.00763
G1 X-1.361 Y0.868 E0.01541
G1 X-.868 Y1.362 E0.01697
G1 X-.266 Y1.54 E0.01527
G1 X0.036 Y1.629 E0.00766
G0 F12000 X0.638 Y1.479
G0 X0.799 Y1.401
G1 F3600 E-1
G0 F12000 X0.432 Y0.665
G0 X0.067 Y0.264
;TYPE:SKIN
G1 F3600 E1
G1 F574.5 X-.175 Y0.191 E0.00642
G1 X-.265 Y-0.069 E0.00699
G1 X-.205 Y-.202 E0.00371
G1 X-0.068 Y-.267 E0.00385
G1 X0.194 Y-.172 E0.00708
G1 X0.264 Y0.069 E0.00637
G1 X0.201 Y0.207 E0.00385
G1 X0.067 Y0.264 E0.0037
G0 F12000 X0.058 Y0.743
G1 F600 X-.417 Y0.603 E0.01204
G1 X-.603 Y0.417 E0.0064
G1 X-.743 Y-0.061 E0.01211
G1 X-.678 Y-.318 E0.00645
G1 X-.539 Y-.538 E0.00633
G1 X-.324 Y-.678 E0.00624
G1 X-0.058 Y-.746 E0.00668
G1 X0.417 Y-.604 E0.01206
G1 X0.604 Y-.417 E0.00643
G1 X0.743 Y0.061 E0.01211
G1 X0.678 Y0.318 E0.00645
G1 X0.539 Y0.538 E0.00633
G1 X0.325 Y0.678 E0.00622
G1 X0.058 Y0.743 E0.00668
G0 F12000 X-0.005 Y0.393
G1 F3600 E-1
;MESH:NONMESH
G0 F600 X-0.005 Y0.393 Z0.82
G0 F12000 X-1.117 Y0.285
;TIME_ELAPSED:7.220975
;LAYER:4
;note -- min layer time used
;TYPE:FILL
;MESH:bridge_unwrapped.stl
G1 F3600 E1
G1 F600 X-.877 Y0.00 E0.00906
G1 X0.146 Y-.903 E0.03319
G1 X0.336 Y-1.104 E0.00673
G1 F3600 E-1
G0 F12000 X0.032 Y1.198
G0 X0.034 Y1.602
;TYPE:WALL-INNER
G1 F3600 E1
G1 F600 X0.722 Y1.437 E0.01721
G1 X1.125 Y1.127 E0.01237
G1 X1.436 Y0.719 E0.01248
G1 X1.602 Y0.027 E0.01731
G1 X1.436 Y-.708 E0.01833
G1 X0.709 Y-1.436 E0.02502
G1 X-0.034 Y-1.602 E0.01852
G1 X-.722 Y-1.437 E0.01721
G1 X-1.125 Y-1.127 E0.01237
G1 X-1.437 Y-.719 E0.01249
G1 X-1.603 Y-0.027 E0.01731
G1 X-1.436 Y0.708 E0.01833
G1 X-.709 Y1.436 E0.02502
G1 X0.034 Y1.602 E0.01852
G1 F3600 E-1
G0 F12000 X0.038 Y2.039
;TYPE:WALL-OUTER
G1 F3600 E1
G1 F600 X0.909 Y1.829 E0.02179
G1 X1.429 Y1.43 E0.01594
G1 X1.829 Y0.906 E0.01603
G1 X2.039 Y0.03 E0.02191
G1 X1.962 Y-.311 E0.0085
G1 X1.824 Y-.922 E0.01523
G1 X1.478 Y-1.268 E0.0119
G1 X1.266 Y-1.479 E0.00727
G1 X0.922 Y-1.823 E0.01183
G1 X0.329 Y-1.956 E0.01478
G1 X-0.038 Y-2.039 E0.00915
G1 X-.909 Y-1.829 E0.02179
G1 X-1.429 Y-1.43 E0.01594
G1 X-1.829 Y-.906 E0.01603
G1 X-2.039 Y-0.03 E0.02191
G1 X-1.962 Y0.311 E0.0085
G1 X-1.824 Y0.922 E0.01523
G1 X-1.478 Y1.268 E0.0119
G1 X-1.266 Y1.479 E0.00727
G1 X-.922 Y1.823 E0.01183
G1 X-.329 Y1.956 E0.01478
G1 X0.038 Y2.039 E0.00915
G0 F12000 X0.815 Y1.852
G0 X0.398 Y0.746
G1 F3600 E-1
;MESH:NONMESH
G0 F600 X0.398 Y0.746 Z0.95
G0 F12000 X-1.094 Y0.427
G0 X-1.464 Y0.509
;TIME_ELAPSED:10.075008
;LAYER:5
;note -- min layer time used
;TYPE:FILL
;MESH:bridge_unwrapped.stl
G1 F3600 E1
G1 F622.2 X-1.043 Y0.00 E0.01607
G1 X0.03 Y-.903 E0.03411
G1 X0.581 Y-1.449 E0.01887
G1 F3600 E-1
G0 F12000 X0.031 Y1.58
G0 X0.026 Y1.983
;TYPE:WALL-INNER
G1 F3600 E1
G1 F622.2 X0.847 Y1.817 E0.02037
G1 X1.407 Y1.409 E0.01685
G1 X1.738 Y0.95 E0.01376
G1 X1.871 Y0.692 E0.00706
G1 X1.983 Y0.023 E0.0165
G1 X1.829 Y-.75 E0.01917
G1 X1.484 Y-1.303 E0.01585
G1 X1.469 Y-1.327 E0.00069
G1 X1.326 Y-1.468 E0.00488
G1 X1.307 Y-1.48 E0.00055
G1 X0.752 Y-1.83 E0.01596
G1 X0.253 Y-1.917 E0.01232
G1 X-0.026 Y-1.983 E0.00697
G1 X-.847 Y-1.817 E0.02037
G1 X-1.407 Y-1.409 E0.01685
G1 X-1.738 Y-.95 E0.01376
G1 X-1.871 Y-.692 E0.00706
G1 X-1.984 Y-0.021 E0.01655
G1 X-1.83 Y0.748 E0.01907
G1 X-1.482 Y1.305 E0.01597
G1 X-1.469 Y1.326 E0.0006
G1 X-1.326 Y1.467 E0.00488
G1 X-1.31 Y1.477 E0.00046
G1 X-.752 Y1.829 E0.01605
G1 X-.253 Y1.917 E0.01232
G1 X0.026 Y1.983 E0.00697
G1 F3600 E-1
G0 F12000 X0.01 Y2.417
;TYPE:WALL-OUTER
G1 F3600 E1
G1 F622.2 X0.812 Y2.286 E0.01976
G1 X1.177 Y2.102 E0.00994
G1 X1.712 Y1.713 E0.01609
G1 X2.102 Y1.172 E0.01622
G1 X2.279 Y0.828 E0.00941
G1 X2.417 Y0.009 E0.0202
G1 X2.325 Y-.38 E0.00972
G1 X2.234 Y-.904 E0.01294
G1 X2.062 Y-1.179 E0.00789
G1 X1.803 Y-1.594 E0.0119
G1 X1.591 Y-1.803 E0.00724
G1 X1.18 Y-2.062 E0.01182
G1 X0.908 Y-2.234 E0.00783
G1 X0.325 Y-2.336 E0.01439
G1 X-0.01 Y-2.417 E0.00838
G1 X-.812 Y-2.286 E0.01976
G1 X-1.177 Y-2.102 E0.00994
G1 X-1.712 Y-1.713 E0.01609
G1 X-2.102 Y-1.172 E0.01622
G1 X-2.279 Y-.828 E0.00941
G1 X-2.417 Y-0.008 E0.02022
G1 X-2.329 Y0.375 E0.00956
G1 X-2.234 Y0.904 E0.01307
G1 X-2.062 Y1.179 E0.00789
G1 X-1.803 Y1.594 E0.0119
G1 X-1.591 Y1.802 E0.00722
G1 X-1.18 Y2.062 E0.01183
G1 X-.908 Y2.234 E0.00783
G1 X-.325 Y2.336 E0.01439
G1 X0.01 Y2.417 E0.00838
G0 F12000 X0.799 Y2.289
G0 X0.512 Y1.122
G1 F3600 E-1
;MESH:NONMESH
G0 F600 X0.512 Y1.122 Z1.08
G0 F12000 X0.623 Y-1.441
G0 X0.807 Y-1.732
;TIME_ELAPSED:13.407711
;LAYER:6
;note -- min layer time used
;TYPE:FILL
;MESH:bridge_unwrapped.stl
G1 F3600 E1
G1 F734.5 X-0.092 Y-.903 E0.02974
G1 X-1.224 Y0.00 E0.03522
G1 X-1.794 Y0.703 E0.02201
G1 F3600 E-1
G0 F12000 X0.004 Y1.964
G0 X0.003 Y2.367
;TYPE:WALL-INNER
G1 F3600 E1
G1 F734.5 X0.759 Y2.242 E0.01864
G1 X1.229 Y2.005 E0.0128
G1 X1.684 Y1.68 E0.0136
G1 X2.008 Y1.225 E0.01359
G1 X2.242 Y0.763 E0.0126
G1 X2.367 Y0.003 E0.01873
G1 X2.237 Y-.751 E0.01861
G1 X1.744 Y-1.584 E0.02354
G1 X1.584 Y-1.744 E0.0055
G1 X0.964 Y-2.104 E0.01744
G1 X0.753 Y-2.237 E0.00607
G1 X-0.003 Y-2.367 E0.01866
G1 X-.759 Y-2.242 E0.01864
G1 X-1.229 Y-2.004 E0.01281
G1 X-1.683 Y-1.68 E0.01357
G1 X-2.009 Y-1.225 E0.01361
G1 X-2.242 Y-.763 E0.01258
G1 X-2.367 Y-0.003 E0.01873
G1 X-2.237 Y0.751 E0.01861
G1 X-1.744 Y1.584 E0.02354
G1 X-1.584 Y1.744 E0.0055
G1 X-.964 Y2.104 E0.01744
G1 X-.753 Y2.237 E0.00607
G1 X0.003 Y2.367 E0.01866
G1 F3600 E-1
G0 F12000 X0.001 Y2.798
;TYPE:WALL-OUTER
G1 F3600 E1
G1 F734.5 X0.893 Y2.651 E0.02199
G1 X1.45 Y2.369 E0.01518
G1 X1.988 Y1.984 E0.01609
G1 X2.373 Y1.446 E0.01609
G1 X2.651 Y0.897 E0.01497
G1 X2.798 Y0.002 E0.02206
G1 X2.642 Y-.905 E0.02238
G1 X2.459 Y-1.198 E0.0084
G1 X2.084 Y-1.846 E0.01821
G1 X1.846 Y-2.084 E0.00819
G1 X1.19 Y-2.464 E0.01844
G1 X0.908 Y-2.642 E0.00811
G1 X-0.001 Y-2.798 E0.02243
G1 X-.893 Y-2.651 E0.02199
G1 X-1.45 Y-2.369 E0.01518
G1 X-1.988 Y-1.984 E0.01609
G1 X-2.373 Y-1.446 E0.01609
G1 X-2.651 Y-.897 E0.01497
G1 X-2.798 Y-0.002 E0.02206
G1 X-2.641 Y0.905 E0.02239
G1 X-2.459 Y1.198 E0.00839
G1 X-2.084 Y1.846 E0.01821
G1 X-1.846 Y2.084 E0.00819
G1 X-1.19 Y2.464 E0.01844
G1 X-.908 Y2.641 E0.0081
G1 X0.001 Y2.798 E0.02244
G0 F12000 X0.79 Y2.668
G0 X0.526 Y1.524
G1 F3600 E-1
;MESH:NONMESH
G0 F600 X0.526 Y1.524 Z1.21
G0 F12000 X0.829 Y-1.722
G0 X1.017 Y-2.044
;TIME_ELAPSED:16.744670
;LAYER:7
;note -- min layer time used
;TYPE:FILL
;MESH:bridge_unwrapped.stl
G1 F3600 E1
G1 F878 X0.833 Y-1.806 E0.00732
G1 X-.221 Y-.903 E0.03376
G1 X-1.425 Y0.00 E0.0366
G1 X-2.115 Y0.875 E0.0271
G1 F3600 E-1
G0 F12000 X0.037 Y2.327
G0 X0.04 Y2.728
;TYPE:WALL-INNER
G1 F3600 E1
G1 F857.2 X0.851 Y2.598 E0.01998
G1 X1.534 Y2.258 E0.01856
G1 X1.922 Y1.92 E0.01252
G1 X2.257 Y1.538 E0.01236
G1 X2.597 Y0.845 E0.01877
G1 X2.728 Y0.028 E0.02012
G1 X2.602 Y-.806 E0.02051
G1 X2.208 Y-1.585 E0.02123
G1 X1.582 Y-2.211 E0.02153
G1 X0.806 Y-2.602 E0.02113
G1 X-0.039 Y-2.728 E0.02078
G1 X-.851 Y-2.598 E0.02
G1 X-1.534 Y-2.257 E0.01857
G1 X-1.922 Y-1.92 E0.0125
G1 X-2.257 Y-1.538 E0.01236
G1 X-2.597 Y-.845 E0.01877
G1 X-2.728 Y-0.028 E0.02012
G1 X-2.602 Y0.806 E0.02051
G1 X-2.207 Y1.585 E0.02124
G1 X-1.581 Y2.212 E0.02155
G1 X-.807 Y2.602 E0.02108
G1 X0.04 Y2.728 E0.02083
G1 F3600 E-1
G0 F12000 X0.042 Y3.159
;TYPE:WALL-OUTER
G1 F3600 E1
G1 F846.8 X0.982 Y3.007 E0.02316
G1 F840 X1.772 Y2.614 E0.02146
G1 X2.223 Y2.222 E0.01453
G1 X2.614 Y1.776 E0.01443
G1 X3.007 Y0.975 E0.0217
G1 F846.8 X3.158 Y0.03 E0.02328
G1 X3.014 Y-.928 E0.02356
G1 F840 X2.777 Y-1.449 E0.01392
G1 X2.548 Y-1.846 E0.01115
G1 X1.842 Y-2.551 E0.02427
G1 X1.449 Y-2.777 E0.01103
G1 X0.928 Y-3.013 E0.01391
G1 F846.8 X-0.042 Y-3.159 E0.02386
G1 X-.982 Y-3.007 E0.02316
G1 F840 X-1.772 Y-2.614 E0.02146
G1 X-2.223 Y-2.222 E0.01453
G1 X-2.614 Y-1.776 E0.01443
G1 X-3.007 Y-.975 E0.0217
G1 F846.8 X-3.158 Y-0.03 E0.02328
G1 X-3.014 Y0.928 E0.02356
G1 F840 X-2.777 Y1.449 E0.01392
G1 X-2.547 Y1.846 E0.01116
G1 X-1.842 Y2.552 E0.02427
G1 X-1.453 Y2.777 E0.01093
G1 X-.928 Y3.013 E0.014
G1 F846.8 X0.042 Y3.159 E0.02386
G0 F12000 X0.831 Y3.032
G0 X0.641 Y1.867
G1 F3600 E-1
;MESH:NONMESH
G0 F600 X0.641 Y1.867 Z1.34
G0 F12000 X1.073 Y-2.046
G0 X1.218 Y-2.333
;TIME_ELAPSED:20.058209
;LAYER:8
;note -- min layer time used
;TYPE:FILL
;MESH:bridge_unwrapped.stl
G1 F3600 E1
G1 F953.3 X0.78 Y-1.806 E0.01667
G1 X-.36 Y-.903 E0.03537
G1 X-1.654 Y0.00 E0.03838
G1 X-2.337 Y0.903 E0.02754
G1 X-2.369 Y1.157 E0.00623
G1 F3600 E-1
G0 F12000 X0.007 Y2.677
G0 X0.005 Y3.075
;TYPE:WALL-INNER
G1 F3600 E1
G1 F953.3 X0.787 Y2.979 E0.01916
G1 X1.181 Y2.828 E0.01026
G1 X1.688 Y2.578 E0.01375
G1 X2.173 Y2.172 E0.01538
G1 X2.582 Y1.685 E0.01547
G1 X2.831 Y1.175 E0.0138
G1 X2.961 Y0.831 E0.00894
G1 X3.078 Y-0.001 E0.02043
G1 X2.964 Y-.813 E0.01994
G1 X2.696 Y-1.404 E0.01578
G1 X2.56 Y-1.732 E0.00864
G1 X1.728 Y-2.561 E0.02857
G1 X1.439 Y-2.677 E0.00757
G1 X0.813 Y-2.964 E0.01675
G1 X-0.005 Y-3.075 E0.02008
G1 X-.786 Y-2.98 E0.01914
G1 X-1.177 Y-2.829 E0.01019
G1 X-1.689 Y-2.577 E0.01388
G1 X-2.173 Y-2.172 E0.01535
G1 X-2.582 Y-1.685 E0.01547
G1 X-2.831 Y-1.175 E0.0138
G1 X-2.961 Y-.831 E0.00894
G1 X-3.078 Y0.001 E0.02043
G1 X-2.965 Y0.813 E0.01994
G1 X-2.696 Y1.404 E0.01579
G1 X-2.56 Y1.732 E0.00864
G1 X-1.728 Y2.561 E0.02857
G1 X-1.439 Y2.677 E0.00757
G1 X-.813 Y2.964 E0.01675
G1 X0.005 Y3.075 E0.02008
G1 F3600 E-1
G0 F12000 X0.002 Y3.504
;TYPE:WALL-OUTER
G1 F3600 E1
G1 F953.3 X0.891 Y3.395 E0.02178
G1 X1.351 Y3.218 E0.01199
G1 X1.922 Y2.937 E0.01548
G1 X2.474 Y2.474 E0.01752
G1 X2.94 Y1.918 E0.01764
G1 X3.222 Y1.344 E0.01555
G1 X3.376 Y0.937 E0.01058
G1 X3.507 Y-0.001 E0.02303
G1 X3.377 Y-.933 E0.02289
G1 X3.089 Y-1.567 E0.01694
G1 X2.96 Y-1.876 E0.00814
G1 X2.809 Y-2.084 E0.00625
G1 X2.08 Y-2.809 E0.02501
G1 X1.877 Y-2.959 E0.00614
G1 X1.587 Y-3.076 E0.00761
G1 X0.933 Y-3.377 E0.01751
G1 X-0.002 Y-3.503 E0.02295
G1 X-.89 Y-3.395 E0.02176
G1 X-1.347 Y-3.218 E0.01192
G1 X-1.922 Y-2.936 E0.01558
G1 X-2.474 Y-2.474 E0.01751
G1 X-2.94 Y-1.918 E0.01764
G1 X-3.222 Y-1.344 E0.01555
G1 X-3.376 Y-.937 E0.01058
G1 X-3.507 Y0.001 E0.02303
G1 X-3.377 Y0.933 E0.02289
G1 X-3.089 Y1.567 E0.01694
G1 X-2.96 Y1.876 E0.00814
G1 X-2.809 Y2.085 E0.00627
G1 X-2.08 Y2.809 E0.02499
G1 X-1.877 Y2.959 E0.00614
G1 X-1.587 Y3.076 E0.00761
G1 X-.933 Y3.377 E0.01751
G1 X0.002 Y3.504 E0.02295
G0 F12000 X0.795 Y3.407
G0 X0.646 Y2.232
G1 F3600 E-1
;MESH:NONMESH
G0 F600 X0.646 Y2.232 Z1.47
G0 F12000 X-2.266 Y1.401
G0 X-2.583 Y1.529
;TIME_ELAPSED:23.393054
;LAYER:9
;note -- min layer time used
;TYPE:FILL
;MESH:bridge_unwrapped.stl
G1 F3600 E1
G1 F1065.7 X-2.56 Y0.903 E0.01524
G1 X-1.927 Y0.00 E0.02682
G1 X-.514 Y-.903 E0.04078
G1 X0.729 Y-1.806 E0.03737
G1 X1.463 Y-2.628 E0.0268
G1 F3600 E-1
G0 F12000 X0.00 Y3.024
G0 X0.001 Y3.424
;TYPE:WALL-INNER
G1 F3600 E1
G1 F1065.7 X0.825 Y3.327 E0.02018
G1 X1.429 Y3.096 E0.01573
G1 X1.959 Y2.791 E0.01487
G1 X2.424 Y2.422 E0.01444
G1 X2.801 Y1.951 E0.01467
G1 X3.038 Y1.578 E0.01075
G1 X3.323 Y0.836 E0.01933
G1 X3.424 Y-0.001 E0.0205
G1 X3.324 Y-.832 E0.02036
G1 X2.982 Y-1.668 E0.02197
G1 X2.432 Y-2.42 E0.02266
G1 X1.667 Y-2.982 E0.02309
G1 X0.832 Y-3.324 E0.02195
G1 X-0.001 Y-3.424 E0.02041
G1 X-.825 Y-3.327 E0.02018
G1 X-1.429 Y-3.096 E0.01573
G1 X-1.959 Y-2.791 E0.01487
G1 X-2.424 Y-2.422 E0.01444
G1 X-2.801 Y-1.951 E0.01467
G1 X-3.038 Y-1.578 E0.01075
G1 X-3.323 Y-.836 E0.01933
G1 X-3.424 Y0.001 E0.0205
G1 X-3.324 Y0.832 E0.02036
G1 X-2.982 Y1.668 E0.02197
G1 X-2.432 Y2.42 E0.02266
G1 X-1.666 Y2.983 E0.02312
G1 X-.832 Y3.324 E0.02191
G1 X0.001 Y3.424 E0.02041
G1 F3600 E-1
G0 F12000 X0.001 Y3.852
;TYPE:WALL-OUTER
G1 F3600 E1
G1 F1065.7 X0.927 Y3.743 E0.02268
G1 X1.612 Y3.481 E0.01784
G1 X2.199 Y3.144 E0.01646
G1 X2.726 Y2.725 E0.01637
G1 X3.148 Y2.198 E0.01642
G1 X3.419 Y1.771 E0.0123
G1 X3.739 Y0.939 E0.02168
G1 X3.852 Y-0.001 E0.02303
G1 X3.739 Y-.94 E0.023
G1 X3.356 Y-1.877 E0.02462
G1 X2.81 Y-2.623 E0.02248
G1 X2.621 Y-2.809 E0.00645
G1 X1.876 Y-3.356 E0.02248
G1 X0.94 Y-3.739 E0.0246
G1 X-0.001 Y-3.852 E0.02305
G1 X-.927 Y-3.743 E0.02268
G1 X-1.612 Y-3.481 E0.01784
G1 X-2.199 Y-3.144 E0.01646
G1 X-2.726 Y-2.725 E0.01637
G1 X-3.148 Y-2.198 E0.01642
G1 X-3.419 Y-1.771 E0.0123
G1 X-3.739 Y-.939 E0.02168
G1 X-3.852 Y0.001 E0.02303
G1 X-3.739 Y0.94 E0.023
G1 X-3.356 Y1.877 E0.02462
G1 X-2.81 Y2.623 E0.02248
G1 X-2.621 Y2.809 E0.00645
